X:62
T:My Love She's But A Lassie Yet
S:American Veteran Fifer #62
C:Donated by John Benjamin,Co. G.30th Mich.Vol.Inf.
M:2/4
L:1/8
Q:1/8=180
K:D 
%%MIDI program 72
%%MIDI transpose 8
%%MIDI ratio 3 1
d/c/ | dDFA | dD Dd/c/ | dDFA | BE Ed/c/ |
dDFA | Bgfe | d/c/B/A/ Bc | dDD :|
|: f/g/ | afge | fd df/g/ | afga | be ef/g/ |
af ge | fd fe | d/c/B/A/ Bc | dDD :|


